X: 1067
T:Waratah Mazurka
M:3/4
L:1/8
S:Harry Schaefer's manuscripts
A:Australia
N:A longer version in 6 parts also exists
Z:Transcribed by John Furlonger
K:G
(3ded c>d e>B|d2 c2 c2|(3cdc B>c f>c|e2 d2 d2|(3ded c>d g>f|(3efe ^d>e a
>g|(3fgf e>f e>d|B2 B2 B2|
(3ded c>d e>B|d2 c2 c2|(3cdc B>c f>c|e2 d2 d2|(3ded c>d g>f|(3efe ^d>e a
>g|(3fgf e>f b>f| g2 g2 g2|
g>f e2 d2|g>f e2 d2|f>e d>c B>A|d2 c2 c2|g>f d2 c2|g>f d2 c2|f>e d>c B>A
|B4 G2|
g>f e2 d2|g>f e2 d2|f>e d>c B>A|d2 c2 c2|g>f d2 c2|g>f d2 c2|f>e d>c B>A
|G6||
